docs/img/vk.svg

<svg width="41" height="40" viewBox="0 0 41 40" fill="none" xmlns="http://www.w3.org/2000/svg">
<mask id="mask0_0_4144" style="mask-type:alpha" maskUnits="userSpaceOnUse" x="0" y="0" width="41" height="40">
<path fill-rule="evenodd" clip-rule="evenodd" d="M0 20.0003V40.0002H40.0151V0.000488281H0V20.0003Z" fill="white"/>
</mask>
<g mask="url(#mask0_0_4144)">
<path fill-rule="evenodd" clip-rule="evenodd" d="M40.0151 20.0005C40.0151 31.0461 31.0573 40.0005 20.0076 40.0005C8.95778 40.0005 0 31.0461 0 20.0005C0 8.95409 8.95778 0.000488281 20.0076 0.000488281C31.0573 0.000488281 40.0151 8.95409 40.0151 20.0005Z" fill="#3F6C96"/>
</g>
<path fill-rule="evenodd" clip-rule="evenodd" d="M18.9724 26.8114H20.3113C20.3113 26.8114 20.7162 26.7666 20.9227 26.5442C21.1124 26.3394 21.106 25.957 21.106 25.957C21.106 25.957 21.0803 24.161 21.9135 23.8962C22.7354 23.6354 23.791 25.6314 24.9098 26.3994C25.7557 26.9802 26.3984 26.853 26.3984 26.853L29.3899 26.8114C29.3899 26.8114 30.9545 26.7146 30.2118 25.485C30.1518 25.3842 29.7804 24.5754 27.9886 22.913C26.1127 21.1722 26.3639 21.4546 28.6232 18.4442C29.9989 16.6106 30.5487 15.4922 30.3767 15.0122C30.2134 14.5562 29.201 14.6762 29.201 14.6762L25.8333 14.697C25.8333 14.697 25.5837 14.6634 25.398 14.7738C25.2179 14.8826 25.1011 15.1354 25.1011 15.1354C25.1011 15.1354 24.5681 16.5538 23.8574 17.7602C22.3576 20.305 21.7582 20.4402 21.5133 20.2818C20.9427 19.9138 21.086 18.8018 21.086 18.013C21.086 15.5458 21.4597 14.517 20.3561 14.2506C19.9903 14.1618 19.7214 14.1042 18.7843 14.0946C17.583 14.0826 16.5658 14.0978 15.9896 14.3802C15.6071 14.5674 15.311 14.9858 15.491 15.0098C15.7143 15.0394 16.2185 15.1458 16.4858 15.509C16.8299 15.9786 16.8187 17.0322 16.8187 17.0322C16.8187 17.0322 17.0172 19.9362 16.3546 20.297C15.9008 20.545 15.279 20.0394 13.9417 17.7298C13.2558 16.5474 12.7396 15.2394 12.7396 15.2394C12.7396 15.2394 12.6396 14.9946 12.4611 14.8642C12.2458 14.7058 11.9449 14.6562 11.9449 14.6562L8.74449 14.6762C8.74449 14.6762 8.26351 14.6898 8.08664 14.8986C7.92978 15.085 8.07464 15.4682 8.07464 15.4682C8.07464 15.4682 10.5804 21.3282 13.4175 24.281C16.0192 26.989 18.9724 26.8114 18.9724 26.8114Z" fill="white"/>
</svg>

<svg width="41" height="40" viewBox="0 0 41 40" fill="none" xmlns="http://www.w3.org/2000/svg"><mask id="mask0_0_4144" style="mask-type:alpha" maskUnits="userSpaceOnUse" x="0" y="0" width="41" height="40"><path fill-rule="evenodd" clip-rule="evenodd" d="M0 20v20h40.015V0H0v20z" fill="#fff"/></mask><g mask="url(#mask0_0_4144)"><path fill-rule="evenodd" clip-rule="evenodd" d="M40.015 20c0 11.046-8.958 20-20.007 20C8.958 40 0 31.047 0 20S8.958 0 20.008 0c11.05 0 20.007 8.954 20.007 20z" fill="#3F6C96"/></g><path fill-rule="evenodd" clip-rule="evenodd" d="M18.972 26.811h1.34s.404-.044.61-.267c.19-.205.184-.587.184-.587s-.026-1.796.807-2.06c.822-.262 1.878 1.734 2.997 2.502.846.581 1.488.454 1.488.454l2.992-.042s1.564-.096.822-1.326c-.06-.1-.432-.91-2.223-2.572-1.876-1.74-1.625-1.458.634-4.469 1.376-1.833 1.926-2.952 1.754-3.432-.164-.456-1.176-.336-1.176-.336l-3.368.021s-.25-.034-.435.077c-.18.109-.297.361-.297.361s-.533 1.419-1.244 2.625c-1.5 2.545-2.099 2.68-2.344 2.522-.57-.368-.427-1.48-.427-2.269 0-2.467.374-3.496-.73-3.762-.366-.09-.635-.147-1.572-.156-1.201-.012-2.218.003-2.794.285-.383.187-.679.606-.499.63.223.03.727.136.995.499.344.47.333 1.523.333 1.523s.198 2.904-.464 3.265c-.454.248-1.076-.258-2.413-2.567a21.245 21.245 0 01-1.202-2.49s-.1-.245-.279-.376a1.38 1.38 0 00-.516-.208l-3.2.02s-.481.014-.658.223c-.157.186-.012.57-.012.57s2.505 5.86 5.343 8.812c2.601 2.708 5.554 2.53 5.554 2.53z" fill="#fff"/></svg>
